X:1
T:Della nascita di Santa Teresia
T:Giovanni Pietro Biandra
T:Source : Madrigaletti a 1,2 e 3 voci. Libro primo---Venezia---B.Magni (Gardano)---1626. Editor : André Vierendeels (15/03/15).
T:Notes : Original clefs : C1, F4 Editorial accidentals above the staff 
T:Della nascita di Santa Teresia
T:#
T:Aria
C:Giovanni Pietro Biandra
%%score 1 2
L:1/8
Q:1/4=130
M:3/2
K:C
V:1 treble nm="Canto" snm="C"
V:2 bass nm="BC" snm="BC"
V:1
 B2 d2 c2 B2 A2 d2 | B2 A2 G2 F2 E2 G2 | A2 A2 G2 G2- G4 :: A2 B2 c2 c2 c2 B2 | c2 c2 d2 d2 e2 c2 | %5
w: Qual ne- glet- ta scin- ti-|let- ta, in Re- gal pa-|la- gio- na- ra, _|in- dia po- co- cre- sce|il fo- co'e l'in- cen- dio|
w: Non puo fe- no por- le'à|pre- no, tur- ba vil che|l'ur- ne vo- te, _|Ch'el- la gi- ra col- ma|d'ira, le- Fi- a- man- ti'hor-|
w: E gia ro- ghi son quei|lo- ghi, che fur log- ge'au-|ra- te'a- van- ti _|Gia la reg- gia tut- t'on-|deg- gia, in tem- pe- sta|
w: Co- si pa- re scin- til-|la- re, par- go- let- ta|fa- vil- liuz- za, _|La Fian- ciul- la che la|cul- la, co' suoi pri- mi|
w: Ma gia veg- gio gran lam-|peg- gio, d'un bel fo- co-|si fe- con- do, _|on- d'ac- ce- sa va Te-|re- sa, che far- ra for-|
w: Fia che man- di rai si|gran- di, di vir- tu che|des- sia pa- ro, _|Ben- che pu- ro par- ra|scu- ro, lo splen- dor del|
 B2 B2 A2 A2 E2 F2 |1 G2 G2 G2 ^F2 G2 G2 :|2 G2 G2 G2 ^F2 G2 G2- || G6 z6 |] %9
w: si di- la- ta, e l'in-|cen- dio si di- la- ta,|cen- dio si di- la- ta.|_|
w: ri- bil ro- te, Fi- a-|man- ti'hor- ri- bil ro- te,|man- ti'hor- ri- bil ro- te.|_|
w: Fiam- me- gian- te, in tem-|pe- sta Fiam- me- gian- te,|pe- sta Fiam- me- gian- te.|_|
w: pian- ti spruz- za, co' suoi|pri- mi pian- ti spruz- za,|pri- mi pian- ti spruz- za.|_|
w: na- ce'il mon- do, che far-|ra for- na- ce'il mon- do,|ra for- na- ce'il mon- do.|_|
w: San- gue chia- ro, lo splen-|dor del San- gue chia- ro,|dor del San- gue chia- ro.|_|
V:2
 G,4 E,4 ^F,4 | G,4 B,,4 C,2 E,2 | D,4 G,,8 :: F,4 E,4 D,4 | C,4 B,,4 A,,4 | E,4 A,,4 C,4 |1 %6
 B,,4 D,4 G,,4 :|2 B,,4 D,4 G,,4- || G,,6 z6 |] %9

